images_sukapura_svg/cmd/lc_splitwindow.svg

<svg viewBox="0 0 24 24" xmlns="http://www.w3.org/2000/svg" xmlns:xlink="http://www.w3.org/1999/xlink"><linearGradient id="a" gradientUnits="userSpaceOnUse" x1="13" x2="13" y1="3" y2="7"><stop offset="0" stop-color="#c8c8cb"/><stop offset="1" stop-color="#98989d"/></linearGradient><path d="m3 2c-.554 0-1 .446-1 1v8h1v-8h8.460938c.014989-.0004127.029981-.0078125.044921-.0078125.01495 0 .029932.0074025.044922.0078125h9.449219v5.3144531c.0044.03612.013825.0701409.015625.1074219.0036.07418-.006095.1507025-.015625.2265625v2.3515625h1v-8c0-.554-.446-1-1-1zm-1 12v7c0 .554.446 1 1 1h18c.554 0 1-.446 1-1v-7h-1v7h-18v-7z" fill="#929292"/><path d="m3 3h18v4h-18z" fill="url(#a)"/><g fill="#ff6961"><rect height="1" ry=".5" width="4" x="1" y="12"/><rect height="1" ry=".5" width="4" x="7" y="12"/><rect height="1" ry=".5" width="4" x="13" y="12"/><rect height="1" ry=".5" width="4" x="19" y="12"/></g><path d="m3 7h18v4h-18z" fill="#fff"/><path d="m3 14h18v7h-18z" fill="#fff"/><path d="m3 7h18v1h-18z" fill="#929292"/></svg>

<?xml version="1.0" encoding="UTF-8" standalone="no"?>
<svg
   xmlns:dc="http://purl.org/dc/elements/1.1/"
   xmlns:cc="http://creativecommons.org/ns#"
   xmlns:rdf="http://www.w3.org/1999/02/22-rdf-syntax-ns#"
   xmlns:svg="http://www.w3.org/2000/svg"
   xmlns="http://www.w3.org/2000/svg"
   xmlns:xlink="http://www.w3.org/1999/xlink"
   xmlns:sodipodi="http://sodipodi.sourceforge.net/DTD/sodipodi-0.dtd"
   xmlns:inkscape="http://www.inkscape.org/namespaces/inkscape"
   viewBox="0 0 24 24"
   version="1.1"
   id="svg30"
   sodipodi:docname="lc_splitwindow.svg"
   inkscape:export-filename="/home/rizmut/Documents/Rizmut/Github/libreoffice-style-sukapura/images_sukapura/cmd/lc_splitwindow.png"
   inkscape:export-xdpi="96"
   inkscape:export-ydpi="96"
   inkscape:version="0.92.3 (unknown)">
  <metadata
     id="metadata36">
    <rdf:RDF>
      <cc:Work
         rdf:about="">
        <dc:format>image/svg+xml</dc:format>
        <dc:type
           rdf:resource="http://purl.org/dc/dcmitype/StillImage" />
        <dc:title />
      </cc:Work>
    </rdf:RDF>
  </metadata>
  <defs
     id="defs34">
    <linearGradient
       inkscape:collect="always"
       id="linearGradient2929">
      <stop
         style="stop-color:#c8c8cb;stop-opacity:1;"
         offset="0"
         id="stop2925" />
      <stop
         style="stop-color:#98989d;stop-opacity:1"
         offset="1"
         id="stop2927" />
    </linearGradient>
    <linearGradient
       inkscape:collect="always"
       xlink:href="#linearGradient2929"
       id="linearGradient2931"
       x1="13"
       y1="3"
       x2="13"
       y2="7"
       gradientUnits="userSpaceOnUse" />
  </defs>
  <sodipodi:namedview
     pagecolor="#ffffff"
     bordercolor="#666666"
     borderopacity="1"
     objecttolerance="10"
     gridtolerance="10"
     guidetolerance="10"
     inkscape:pageopacity="0"
     inkscape:pageshadow="2"
     inkscape:window-width="1366"
     inkscape:window-height="699"
     id="namedview32"
     showgrid="true"
     inkscape:zoom="13.906433"
     inkscape:cx="-8.5567528"
     inkscape:cy="15.027866"
     inkscape:window-x="0"
     inkscape:window-y="0"
     inkscape:window-maximized="1"
     inkscape:current-layer="svg30">
    <inkscape:grid
       type="xygrid"
       id="grid843" />
  </sodipodi:namedview>
  <g
     id="g837">
    <path
       id="path4"
       d="M 3 2 C 2.446 2 2 2.446 2 3 L 2 11 L 3 11 L 3 3 L 11.460938 3 C 11.475927 2.9995873 11.490919 2.9921875 11.505859 2.9921875 C 11.520809 2.9921875 11.535791 2.99959 11.550781 3 L 21 3 L 21 8.3144531 C 21.0044 8.3505731 21.013825 8.384594 21.015625 8.421875 C 21.019225 8.496055 21.00953 8.5725775 21 8.6484375 L 21 11 L 22 11 L 22 3 C 22 2.446 21.554 2 21 2 L 3 2 z M 2 14 L 2 21 C 2 21.554 2.446 22 3 22 L 21 22 C 21.554 22 22 21.554 22 21 L 22 14 L 21 14 L 21 21 L 3 21 L 3 14 L 2 14 z "
       style="fill:#929292;fill-opacity:1" />
    <path
       sodipodi:nodetypes="ccccc"
       inkscape:connector-curvature="0"
       id="rect886"
       d="M 3,3 H 21 V 7 H 3 Z"
       style="opacity:1;fill:url(#linearGradient2931);fill-opacity:1;stroke:none;stroke-width:2;stroke-linecap:round;stroke-linejoin:round;stroke-miterlimit:4;stroke-dasharray:none;stroke-opacity:1" />
    <rect
       style="fill:#ff6961;fill-opacity:1;stroke:none"
       id="rect8"
       y="12"
       x="1"
       width="4"
       ry="0.5"
       height="1" />
    <rect
       style="fill:#ff6961;fill-opacity:1;stroke:none"
       id="rect10"
       y="12"
       x="7"
       width="4"
       ry="0.5"
       height="1" />
    <rect
       style="fill:#ff6961;fill-opacity:1;stroke:none"
       id="rect12"
       y="12"
       x="13"
       width="4"
       ry="0.5"
       height="1" />
    <rect
       style="fill:#ff6961;fill-opacity:1;stroke:none"
       id="rect14"
       y="12"
       x="19"
       width="4"
       ry="0.5"
       height="1" />
    <rect
       y="7"
       x="3"
       height="4"
       width="18"
       id="rect2802"
       style="opacity:1;fill:#ffffff;fill-opacity:1;stroke:none;stroke-width:2;stroke-linecap:round;stroke-linejoin:round;stroke-miterlimit:4;stroke-dasharray:none;stroke-opacity:1" />
    <rect
       y="14"
       x="3"
       height="7"
       width="18"
       id="rect2804"
       style="opacity:1;fill:#ffffff;fill-opacity:1;stroke:none;stroke-width:2;stroke-linecap:round;stroke-linejoin:round;stroke-miterlimit:4;stroke-dasharray:none;stroke-opacity:1" />
    <rect
       y="7"
       x="3"
       height="1"
       width="18"
       id="rect2923"
       style="opacity:1;fill:#929292;fill-opacity:1;stroke:none;stroke-width:2;stroke-linecap:round;stroke-linejoin:round;stroke-miterlimit:4;stroke-dasharray:none;stroke-opacity:1" />
  </g>
</svg>
